packages/mercury/src/icons/svg-source/bpm/compensation-1.svg

<svg xmlns="http://www.w3.org/2000/svg" width="32" height="32" fill="none" viewBox="0 0 32 32">
  <g clip-path="url(#a)">
    <path fill="#C0CCD9" d="M15.72 31.49A15.5 15.5 0 1 1 31.22 16a15.51 15.51 0 0 1-15.5 15.49Zm0-30A14.5 14.5 0 1 0 30.22 16a14.52 14.52 0 0 0-14.5-14.51Zm-1.44 19.44a.45.45 0 0 1-.27-.08l-6.56-4.22a.5.5 0 0 1 0-.84L14 11.57a.49.49 0 0 1 .51 0 .48.48 0 0 1 .26.43v8.44a.51.51 0 0 1-.26.44.5.5 0 0 1-.23.05Zm-5.64-4.72 5.14 3.31v-6.61l-5.14 3.3Zm13.18 4.72a.45.45 0 0 1-.27-.08L15 16.63a.499.499 0 0 1 0-.84l6.56-4.22a.49.49 0 0 1 .51 0 .48.48 0 0 1 .26.43v8.44a.51.51 0 0 1-.26.44.5.5 0 0 1-.25.05Zm-5.63-4.72 5.13 3.31v-6.61l-5.13 3.3Z"/>
  </g>
</svg>

<svg xmlns="http://www.w3.org/2000/svg" viewBox="0 0 32 32"><defs><style>.e1cb582b-0db8-4dcb-8e12-da238af3cc77{fill:#81888e;}</style></defs><g id="a355f078-c439-423e-aebd-d126c0111ee9" data-name="compensation-1"><path id="a81a7203-9813-4cf3-9642-cacd5752ff9e" data-name="icons09" class="e1cb582b-0db8-4dcb-8e12-da238af3cc77" d="M15.72,31.49A15.5,15.5,0,1,1,31.22,16,15.51,15.51,0,0,1,15.72,31.49Zm0-30A14.5,14.5,0,1,0,30.22,16,14.52,14.52,0,0,0,15.72,1.49ZM14.28,20.93a.45.45,0,0,1-.27-.08L7.45,16.63a.5.5,0,0,1,0-.84L14,11.57a.49.49,0,0,1,.51,0,.48.48,0,0,1,.26.43v8.44a.51.51,0,0,1-.26.44A.5.5,0,0,1,14.28,20.93ZM8.64,16.21l5.14,3.31V12.91Zm13.18,4.72a.45.45,0,0,1-.27-.08L15,16.63a.5.5,0,0,1,0-.84l6.56-4.22a.49.49,0,0,1,.51,0,.48.48,0,0,1,.26.43v8.44a.51.51,0,0,1-.26.44A.5.5,0,0,1,21.82,20.93Zm-5.63-4.72,5.13,3.31V12.91Z"/></g></svg>
